X: 21875
T: Kiss Me Kate
R: reel
M: 4/4
K: Gmajor
G2Bd gdBG|DEGB AEE2|GABd gdBd|c2Ac BEEF|
G2Bd gdBG|DEGB AEE2|GABd gdBd|c2Ac BGG g||
fgag fddf|g2ga bgeg|faag fddg|fdef g2d2|
gb af g2af|gfag fddg|fdd2 Add2|edef gedB||

